!!!!SEGMENT: pl-wnifc--6831-n_katski-antoni--valse-op-151.krn
!!!cenid: 18xx:3905
!!!COM: Kątski, Antoni
!!!COM-rismID: pe30017994
!!!CDT: 1817-1899
!!!CNT:
!!!OTL: Valse op. 151
!!!PDT:
!!!AGN:
!!!SMS-siglum: PL-Wnifc
!!!SMS-shelfmark: 6831/n
!!!SMS-shelfwork: W
!!!SMS-variant:
!!!SMS-altvar:
!!!NIFC-rismSourceID: 1001160790
!!!NIFC-rismChildID: 1001160790
!!!NIFC-islandoraID: nifc:213841
!!!URL-pdf-islandora: https://repozytorium.nifc.pl/islandora/object/nifc%3A213841/datastream/PDF/view
!!!URL-scan: https://polish.musicsources.pl/pl/lokalizacje/galeria/druki-muzyczne/16948 @EN{Scan on Polish Music Sources Website} @PL{Skany w portalu Dziedzictwo Muzyki Polskiej w otwartym dostępie}
!!!ONB-nifc: UWAGA: Walc razem z Introdukcją
!!!AIN: 2 piano
!!!key: A-
**kern	**fing	**kern	**fing	**dynam
*part2	*part2	*part1	*part1	*part1
*staff2	*	*staff1	*	*
*I"Piano	*	*I"Piano	*	*
*I'pf	*	*I'pf	*	*
*ICklav	*	*ICklav	*	*
*Ipiano	*	*Ipiano	*	*
*clefF4	*	*clefG2	*	*
*k[b-e-a-d-]	*	*k[b-e-a-d-]	*	*
*A-:	*	*A-:	*	*
*M3/4	*	*M3/4	*	*
=1	=1	=1	=1	=1
!LO:TUP:b:problem:klamra łukowa i cyfra	!	!LO:TUP:a:problem:klamra łukowa i cyfra	!	!
!	!	!LO:TX:a:t=Introduction.	!	!
!	!	!LO:TX:a:B:t=Allegro con fuoco.	!	!
12EE-\L	.	12E-</L	.	ff
12FF\	.	12F</	.	.
12EE-\J	.	12E-</J	.	.
4DDn\	.	4Dn</	.	.
4EE-\	.	4E-</	.	.
=2	=2	=2	=2	=2
4.C\	.	4.c/	.	.
8BB-\	.	8B-/	.	.
4EE-\	.	4E-</	.	.
=3	=3	=3	=3	=3
4r	.	4r	.	.
8r	.	8r	.	.
8E-\ 8A- 8B- 8d-	.	8f-X\ 8a- 8b- 8ff-X	.	.
4E-\ 4A- 4B- 4d-	.	4f-\ 4a- 4b- 4ff-	.	.
=4	=4	=4	=4	=4
4.E-\ 4.A- 4.B- 4.d-	.	4.f-X\ 4.a- 4.b- 4.ff-X	.	.
8E-\ 8G 8B- 8d-	.	8e-/ 8g 8b- 8ee-	.	.
4E-\ 4G 4B- 4d-	.	4e-/ 4g 4b- 4ee-	.	.
!!LO:LB:g=original	!	!
=5	=5	=5	=5	=5
!LO:TUP:b:problem:klamra łukowa i cyfra	!	!LO:TUP:a:problem:klamra łukowa i cyfra	!	!
12EE-\L	.	12E-</L	.	.
12FF\	.	12F</	.	.
12EE-\J	.	12E-</J	.	.
4DDn\	.	4Dn</	.	.
4EE-\	.	4E-</	.	.
=6	=6	=6	=6	=6
4.C\	.	4.c</	.	.
8BB-\	.	8B-</	.	.
4EE-\	.	4E-</	.	.
=7	=7	=7	=7	=7
4r	.	4r	.	.
8r	.	8r	.	.
8F-X\ 8B- 8d-	.	8a-\ 8b- 8dd- 8aa-	.	.
4F-\ 4B- 4d-	.	4a-\ 4b- 4dd- 4aa-	.	.
=8	=8	=8	=8	=8
4.F-X\ 4.B- 4.d-	.	4.a-\ 4.b- 4.dd- 4.aa-	.	.
8E-\ 8G 8B- 8d-	.	8g\ 8b- 8dd- 8gg	.	.
4E-\ 4G 4B- 4d-	.	4g\ 4b- 4dd- 4gg	.	.
=9	=9	=9	=9	=9
!LO:TUP:b:problem:klamra łukowa i cyfra	!	!LO:TUP:a:problem:klamra łukowa i cyfra	!	!
12EE-\L	.	12E-</L	.	.
12FF\	.	12F</	.	.
12EE-\J	.	12E-</J	.	.
4DDn\	.	4Dn</	.	.
4EE-\	.	4E-</	.	.
!!LO:LB:g=original	!	!
=10	=10	=10	=10	=10
4.C\	.	4.c/	.	.
8BB-\	.	8B-/	.	.
4EE-\	.	4E-</	.	.
=11	=11	=11	=11	=11
!LO:TUP:a:problem:klamra łukowa i cyfra	!	!LO:TUP:b:problem:klamra łukowa i cyfra	!	!
12E-\L	.	12e-/L	.	.
12F\	.	12f/	.	.
12E-\J	.	12e-/J	.	.
4Dn\	.	4dn/	.	.
4E-\	.	4e-/	.	.
=12	=12	=12	=12	=12
4.c\	.	4.cc\	.	.
8B-\	.	8b-\	.	.
4E-\	.	4e-/	.	.
*clefG2	*	*	*	*
=13	=13	=13	=13	=13
!LO:TUP:b:problem:klamra łukowa i cyfra	!	!LO:TUP:a:problem:klamra łukowa i cyfra	!	!
12e-/L	.	12ee-\L	.	.
12f/	.	12ff\	.	.
12e-/J	.	12ee-\J	.	.
4dn/	.	4ddn\	.	.
4e-/	.	4ee-\	.	.
=14	=14	=14	=14	=14
*	*	*8va	*	*
!	!	!LO:TX:b:Bi:t=tutta la forza	!	!
8ccc\L	.	8cccc\L	.	.
8bb-\	.	8bbb-\	.	.
8gg\	.	8ggg\	.	.
8ee-\	.	8eee-\	.	.
*	*	*X8va	*	*
8cc\	1	8ccc\	1	.
8b-\J	.	8bb-\J	.	.
!!LO:LB:g=original	!	!	!	!
=15	=15	=15	=15	=15
8g/L	.	8gg\L	.	.
8e-/	.	8ee-\	.	.
8cc/	.	8ccc\	5	.
8b-/	.	8bb-\	.	.
8g/	.	8gg\	.	.
8e-/J	.	8ee-\J	.	.
*clefF4	*	*	*	*
=16	=16	=16	=16	=16
*	*	*	*below	*
8c\L	1	8cc/L	1	.
8B-\	.	8b-/	.	.
8G\	.	8g/	.	.
8E-\	.	8e-/	.	.
8c\	.	8cc/	5	.
8B-\J	.	8b-/J	.	.
=17	=17	=17	=17	=17
8G/L	.	8g/L	.	.
8E-/	.	8e-/	.	.
*	*below	*	*	*
8C/	1	8c/	1	.
8BB-/	.	8B-/	.	.
8GG/	.	8G/	.	.
8BB-/J	.	8B-/J	.	.
=18	=18	=18	=18	=18
4EE-/	.	4e-/	.	.
4r	.	4r	.	.
!	!	!LO:TX:b:Bi:t=rall.	!	!
4r	.	(4e-/	.	.
=19	=19	=19	=19	=19
4r	.	4ee-\)	.	>
4E-\ 4G	.	4r	.	.
4r	.	(4e-/	.	]]
=20	=20	=20	=20	=20
4r	.	4ee-\)	.	.
4E-;\ 4G	.	4r;	.	.
4ryy	.	4ryy	.	.
!!LO:PB:g=original	!	!	!	!
==21	==21	==21	==21	==21
*clefF4	*	*clefG2	*	*
*k[b-e-a-d-]	*	*k[b-e-a-d-]	*	*
*M3/4	*	*M3/4	*	*
!	!	!LO:TX:a:B:t=Grazioso.	!	!
!	!	!LO:TX:a:B:t=VALSE.	!	!
4r	.	4ee-\	.	p
=22	=22	=22	=22	=22
!	!	!LO:TUP:a:problem:klamra łukowa i cyfra	!	!
2.r	.	12ee-\L	.	.
.	.	12ff\	.	.
.	.	12ee-\J	.	.
.	.	4ddn'\	.	.
.	.	4ee-'\	.	.
=23	=23	=23	=23	=23
.	.	8qee-/	.	.
4E-\	.	(4.ccc^<\	.	.
4B-\ 4e- 4g	.	.	.	.
.	.	8bb-\	.	.
4B-\ 4e- 4g	.	4dd-\)	.	.
=24	=24	=24	=24	=24
!	!	!LO:TUP:a:problem:klamra łukowa i cyfra	!	!
4E-\	.	12dd-\L	.	.
.	.	12ee-\	.	.
.	.	12dd-\J	.	.
4B-\ 4e- 4g	.	4cc'\	.	.
4B-\ 4e- 4g	.	4dd-'\	.	.
=25	=25	=25	=25	=25
.	.	8qdd-/	.	.
4A-\	.	(4.bb-^<\	.	.
4c\ 4e- 4a-	.	.	.	.
.	.	8aa-\	.	.
4c\ 4e- 4a-	.	4cc\)	.	.
=26	=26	=26	=26	=26
!	!	!LO:TUP:a:problem:klamra łukowa i cyfra	!	!
4A-\	.	12cc\L	.	.
.	.	12dd-\	.	.
.	.	12cc\J	.	.
4c\ 4e- 4a-	.	4bn'\	.	.
4c\ 4e- 4a-	.	4cc'\	.	.
!!LO:LB:g=original	!	!	!	!
=27	=27	=27	=27	=27
.	.	8qcc/	.	.
4C/	.	(4.aa-\	.	.
4G\ 4c 4en	.	.	.	.
.	.	8gg\	.	.
4G\ 4c 4e	.	4b-\)	.	.
=28	=28	=28	=28	=28
!	!	!LO:TUP:a:problem:klamra łukowa i cyfra	!	!
4C/	.	12b-\L	.	.
.	.	12cc\	.	.
.	.	12b-\J	.	.
4G\ 4c 4en	.	4an'/	.	.
4G\ 4c 4e	.	4b-'\	.	.
=29	=29	=29	=29	=29
.	.	8qb-/	.	.
4F\	.	(4.gg\	.	.
4A-\ 4c 4f	.	.	.	.
.	.	8ff\	.	.
4A-\ 4c 4f	.	4a-/)	.	.
=30	=30	=30	=30	=30
!	!	!LO:TUP:a:problem:klamra łukowa i cyfra	!	!
4F\	.	12ff\L	.	ff
.	.	12gg\	.	.
.	.	12ff\J	.	.
4A-\ 4c 4f	.	4een'\	.	.
4A-\ 4c 4f	.	4ff'\	.	.
=31	=31	=31	=31	=31
.	.	8qff/	.	.
4D-\	.	(4.eee-\	.	.
4A-\ 4d-	.	.	.	.
.	.	8ddd-\	.	.
8A-\ 8d-	.	8ff\)	.	.
8r;	.	8r;	.	.
=32	=32	=32	=32	=32
!	!	!LO:TUP:a:problem:klamra łukowa i cyfra	!	!
4D-\	.	12ff-X\L	.	pp
.	.	12gg-X\	.	.
.	.	12ff-\J	.	.
4A-\ 4d-	.	4ee-'\	.	.
8A-\ 8d-	.	4ff-'\	.	.
8r	.	.	.	.
!!LO:LB:g=original	!	!	!	!
=33	=33	=33	=33	=33
.	.	8qff-X/	.	.
4E-\	.	(4.ddd-\	.	.
4A-\ 4c 4e-	.	.	.	.
.	.	8ccc\	.	.
4A-\ 4c 4e-	.	4ee-\)	.	.
=34	=34	=34	=34	=34
!	!	!LO:TUP:a:problem:klamra łukowa i cyfra	!	!
4E-\	.	12ee-\L	.	.
.	.	12ff\	.	.
.	.	12ee-\J	.	.
4A-\ 4c 4e-	.	4ddn'\	.	.
4A-\ 4c 4e-	.	4ee-'\	.	.
=35	=35	=35	=35	=35
.	.	8qee-/	.	.
4EE-/	.	(4.ccc\	.	.
4G\ 4B- 4e-	.	.	.	.
.	.	8bb-\	.	.
4G\ 4B- 4e-	.	4dd-\)	.	.
=36	=36	=36	=36	=36
.	.	8qee-/	.	.
4EE-/	.	(4.ccc\	.	.
4G\ 4B- 4e-	.	.	.	.
.	.	8bb-\	.	.
4G\ 4B- 4e-	.	4dd-\)	.	.
=37	=37	=37	=37	=37
4AA-/	.	4cc\ 4aa-	.	.
4E-\ 4A- 4c 4e-	.	4r	.	.
4ryy	.	4ryy	.	.
=38:|!	=38:|!	=38:|!	=38:|!	=38:|!
!	!	!LO:TUP:a:problem:klamra łukowa i cyfra	!	!
4r	.	12aa-\L	.	p
.	.	12bb-\	.	.
.	.	12aa-\J	.	.
!!LO:LB:g=original	!	!	!	!
=39	=39	=39	=39	=39
4C/	.	8gg\L	.	.
.	.	8aa-\	.	.
4A-\ 4e- 4g-X	.	8aan\	.	.
.	.	8bb-\	.	<
4AA-/	.	8bbn\	.	.
.	.	8ccc\J	.	.
=40	=40	=40	=40	=40
4D-\	.	8ddd-\L	.	.
.	.	8dddn\	.	.
4A-\ 4d- 4f	.	8eee-\	.	.
.	.	8eeen\	.	[
4A-\ 4d- 4f	.	8fff\	.	.
.	.	8ggg-X\J	.	.
=41	=41	=41	=41	=41
4E-\	.	8fff\L	.	.
.	.	8fff-X\	.	.
4A-\ 4c 4g-X	.	8eee-\	.	.
.	.	8eee--\	.	>
4A-\ 4c 4g-	.	8ddd-\	.	.
.	.	8ccc\J	.	.
=42	=42	=42	=42	=42
4F\	.	8ccc-X\L	.	.
.	.	8bb-\	.	.
4A-\ 4d- 4f	.	8bb--\	.	.
.	.	8aa-\	.	]
4A-\ 4d- 4f	.	8gg\	.	.
.	.	8aa-\J	.	.
=43	=43	=43	=43	=43
4Dn\	.	8aan\L	.	<
.	.	8bb-\	.	.
4B-\ 4f 4a-	.	8bbn\	.	.
.	.	8ccc\	.	.
4BB-/	.	8ccc#X\	.	.
.	.	8dddn\J	.	[[
!!LO:LB:g=original	!	!	!	!
=44	=44	=44	=44	=44
4E-\	.	8eee-\L	.	.
.	.	8eeen\	.	.
4B-\ 4e- 4gn	.	8fff\	.	.
.	.	8fff#X\	.	.
4B-\ 4e- 4gny	.	8ggg\	.	.
.	.	8aaa-\J	.	.
=45	=45	=45	=45	=45
4F\	.	8ggg\L	.	>
.	.	8ggg-X\	.	.
4B-\ 4dn 4a-	.	8fff\	.	.
.	.	8fff-X\	.	.
4B-\ 4d 4a-	.	8eee-\	.	.
.	.	8dddn\J	.	.
=46	=46	=46	=46	=46
4G\	.	8ddd-X\L	.	.
.	.	8ccc\	.	]
4B-\ 4e- 4g	.	8ccc-X\	.	.
.	.	8bb-\	.	.
4B-\ 4e- 4g	.	8aan\	.	.
.	.	8bb-\J	.	.
*clefG2	*	*	*	*
=47	=47	=47	=47	=47
4G/	.	8bbn\L	.	<
.	.	8ccc\	.	.
4d-/ 4e- 4b-	.	8ddd-\	.	.
.	.	8dddn\	.	.
4d-/ 4e- 4b-	.	8eee-\	.	.
.	.	8eeen\J	.	[[
=48	=48	=48	=48	=48
!	!	!LO:TX:t=P:problem: grupy ósemek zapisane pod jedną belką - błąd wyświetlania tupletu w Verovio przy zastosowaniu jednej belki	!	!
4A-/	.	8ff\L	.	.
*	*	*8va	*	*
.	.	8fff#X\J	.	.
!	!	!LO:TUP:a:problem:klamra łukowa i cyfra	!	!
4e-/ 4a- 4cc-X	.	12ggg\LL	.	.
.	.	12aaa-\	.	.
.	.	12aaan\JJ	.	.
!	!	!LO:TUP:a:problem:klamra łukowa i cyfra	!	!
4e-/ 4a- 4cc-	.	12bbb-\LL	.	.
.	.	12bbbn\	.	.
.	.	12cccc\JJ	.	.
!!LO:LB:g=original	!	!	!	!
=49	=49	=49	=49	=49
4B-/	.	8dddd-\L	.	ff
.	.	8ddddn\	.	.
4e-/ 4g 4dd-	.	8eeee-\	.	.
.	.	8eeeen\	.	.
!	!	!LO:TX:a:Bi:t=tutta la forza	!	!
!	!	!LO:TUP:a:problem:klamra łukowa i cyfra	!	!
4e-/ 4g 4dd-	.	12ffff\	.	.
.	.	12ffff#X\	.	.
.	.	12gggg\J	.	.
=50	=50	=50	=50	=50
4c-X/	.	8aaaa-\L	.	.
.	.	8gggg\	.	.
4e-/ 4a- 4cc-X	.	8gggg-X\	.	.
.	.	8ffff\	.	.
4e-/ 4a- 4cc-	.	8ffff-X\	.	.
.	.	8eeee-\J	.	.
=51	=51	=51	=51	=51
4e-/ 4a- 4cc-X	.	8eeee--\L	.	.
.	.	8dddd-\	.	.
4r	.	8cccc\	.	.
.	.	8cccc-X\	.	.
4r	.	8bbb-\	.	.
.	.	8bbb--\J	.	.
*clefF4	*	*	*	*
=52	=52	=52	=52	=52
!	!	!LO:TUP:a:problem:klamra łukowa i cyfra	!	!
4FF-X/	.	12aaa-\L	.	.
.	.	12ggg\	.	.
.	.	12ggg-X\J	.	.
!	!	!LO:TUP:a:problem:klamra łukowa i cyfra	!	!
4F-X\ 4A- 4c-X	.	12fff\L	.	.
.	.	12fff-X\	.	.
*	*	*X8va	*	*
.	.	12eee-\J	.	.
!	!	!LO:TUP:a:problem:klamra łukowa i cyfra	!	!
4F-\ 4A- 4c-	.	12eee--\L	.	.
.	.	12ddd-\	.	.
.	.	12ccc\J	.	.
!!LO:LB:g=original	!	!	!	!
=53	=53	=53	=53	=53
!	!	!LO:TUP:a:problem:klamra łukowa i cyfra	!	!
4F-X\ 4A- 4c-X	.	12ccc-X\L	.	.
.	.	12bb-\	.	.
.	.	12bb--\J	.	.
!	!	!LO:TUP:a:problem:klamra łukowa i cyfra	!	!
4r	.	12aa-\L	.	.
.	.	12gg\	.	.
.	.	12gg-X\J	.	.
4FF-X/ 4BB- 4F-X	.	16ff\LL	.	.
.	.	16ff-X\	.	.
.	.	16ee-\	.	.
.	.	16ddn\JJ	.	.
=54	=54	=54	=54	=54
4EE-/ 4BB- 4E-	.	4ee-\	.	.
4r	.	8e-/L	.	.
.	.	8e-/	.	.
4r	.	8e-/	.	.
.	.	8e-/J	.	.
=55	=55	=55	=55	=55
4AA-\ 4E- 4c-X	.	4e-/	.	.
4D-\ 4B-	.	4e-/	.	.
4C-X\ 4A-	.	4e-/	.	.
=56	=56	=56	=56	=56
4EE-/ 4BB- 4G	.	4e-/	.	.
4r	.	8ee-\L	.	.
.	.	8ee-\	.	.
4r	.	8ee-\	.	.
.	.	8ee-\J	.	.
*clefG2	*	*	*	*
=57	=57	=57	=57	=57
4A-/ 4e- 4cc-X	.	4ee-\	.	.
4d-/ 4b-	.	4ee-\	.	>
4c-X/ 4a-	.	4ee-\	.	.
!!LO:LB:g=original	!	!	!	!
=58	=58	=58	=58	=58
4E-/ 4B- 4g	.	4ee-\	.	.
4r	.	8ee-\L	.	.
.	.	8ee-\	.	.
4r	.	8ee-\	.	.
.	.	8ee-\J	.	.
=59	=59	=59	=59	=59
4e-/ 4f 4a-	.	4ee-\	.	.
!	!	!LO:TX:t=ral_len_tan_do:dur=11e3q:ext=ud:problem:text with extention lines	!	!
4r	.	8ee-\L	.	]
.	.	8ee-\	.	.
4e-/ 4f#X 4an	.	8ee-\	.	.
.	.	8ee-\J	.	.
=60	=60	=60	=60	=60
4e-/ 4g 4b-	.	4ee-\	.	p
4r	.	8ee-\L	.	.
.	.	8ee-\	.	.
4r	.	8ee-\	.	.
.	.	8ee-\J	.	.
=61	=61	=61	=61	=61
!	!	!LO:TUP:a:problem:klamra łukowa i cyfra	!	!
2.r	.	12ee-\L	.	pp
.	.	12ff\	.	.
.	.	12ee-\J	.	.
.	.	4ddn'\	.	.
.	.	4ee-'\	.	.
*clefF4	*	*	*	*
=62	=62	=62	=62	=62
.	.	8qee-/	.	.
4E-\	.	(4.ccc\	.	.
4B-\ 4e- 4g	.	.	.	.
.	.	8bb-\	.	.
4B-\ 4e- 4g	.	4dd-\)	.	.
=63	=63	=63	=63	=63
!	!	!LO:TUP:a:problem:klamra łukowa i cyfra	!	!
4E-\	.	12dd-\L	.	.
.	.	12ee-\	.	.
.	.	12dd-\J	.	.
4B-\ 4e- 4g	.	4cc'\	.	.
4B-\ 4e- 4g	.	4dd-'\	.	.
!!LO:LB:g=original	!	!	!	!
=64	=64	=64	=64	=64
.	.	8qdd-/	.	.
4A-\	.	(4.bb-\	.	.
4c\ 4e- 4a-	.	.	.	.
.	.	8aa-\	.	.
4c\ 4e- 4a-	.	4cc\)	.	.
=65	=65	=65	=65	=65
!	!	!LO:TUP:a:problem:klamra łukowa i cyfra	!	!
4A-\	.	12cc\L	.	.
.	.	12dd-\	.	.
.	.	12cc\J	.	.
4c\ 4e- 4a-	.	4bn'\	.	.
4c\ 4e- 4a-	.	4cc'\	.	.
=66	=66	=66	=66	=66
.	.	8qcc/	.	.
4C/	.	(4.aa-\	.	.
4G\ 4c 4en	.	.	.	.
.	.	8gg\	.	.
4G\ 4c 4e	.	4b-\)	.	.
=67	=67	=67	=67	=67
!	!	!LO:TUP:a:problem:klamra łukowa i cyfra	!	!
4C/	.	12b-\L	.	.
.	.	12cc\	.	.
.	.	12b-\J	.	.
4G\ 4c 4en	.	4an'/	.	.
4G\ 4c 4e	.	4b-'\	.	.
=68	=68	=68	=68	=68
.	.	8qb-/	.	.
4F\	.	(4.gg\	.	.
4A-\ 4c 4f	.	.	.	.
.	.	8ff\	.	.
4A-\ 4c 4f	.	4a-/)	.	.
=69	=69	=69	=69	=69
!	!	!LO:TUP:a:problem:klamra łukowa i cyfra	!	!
4F\	.	12ff\L	.	ff
.	.	12gg\	.	.
.	.	12ff\J	.	.
4A-\ 4c 4f	.	4een'\	.	.
4A-\ 4c 4f	.	4ff'\	.	.
!!LO:LB:g=original	!	!	!	!
=70	=70	=70	=70	=70
.	.	8qff/	.	.
4D-\	.	(4.eee-\	.	.
4A-\ 4d- 4f	.	.	.	.
.	.	8ddd-\	.	.
8A-\ 8d- 8f	.	8ff\)	.	.
8r;	.	8r;	.	.
=71	=71	=71	=71	=71
!	!	!LO:TUP:a:problem:klamra łukowa i cyfra	!	!
4D-\	.	12ff-X\L	.	pp
.	.	12gg-X\	.	.
.	.	12ff-\J	.	.
4A-\ 4d- 4f-X	.	4ee-'\	.	.
4A-\ 4d- 4f-	.	4ff-'\	.	.
=72	=72	=72	=72	=72
.	.	8qff-X/	.	.
4E-\	.	(4.ddd-\	.	.
4A-\ 4c 4e-	.	.	.	.
.	.	8ccc\	.	.
4A-\ 4c 4e-	.	4ee-\)	.	.
=73	=73	=73	=73	=73
!	!	!LO:TUP:a:problem:klamra łukowa i cyfra	!	!
4E-\	.	12ee-\L	.	.
.	.	12ff\	.	.
.	.	12ee-\J	.	.
4A-\ 4c 4e-	.	4ddn'\	.	.
4A-\ 4c 4e-	.	4ee-'\	.	.
=74	=74	=74	=74	=74
.	.	8qee-/	.	.
4EE-/	.	(4.ccc\	.	.
4B-\ 4e- 4g	.	.	.	.
.	.	8bb-\	.	.
4B-\ 4e- 4g	.	4dd-\)	.	.
=75	=75	=75	=75	=75
.	.	8qee-/	.	.
4EE-/	.	(4.ccc\	.	.
4B-\ 4e- 4g	.	.	.	.
.	.	8bb-\	.	.
4B-\ 4e- 4g	.	4dd-\)	.	.
=76	=76	=76	=76	=76
4AA-/	.	4cc\ 4aa-	.	.
4A-\ 4c 4e- 4a-	.	4r	.	.
4ryy	.	4ryy	.	.
=77||	=77||	=77||	=77||	=77||
!	!	!LO:TUP:a:problem:klamra łukowa i cyfra	!	!
4r	.	12aa-\L	.	.
.	.	12bb-\	.	.
.	.	12aa-\J	.	.
!!LO:PB:g=original	!	!	!	!
=78	=78	=78	=78	=78
4C/	.	8gg\L	.	.
.	.	8aa-\	.	.
4A-\ 4e- 4g-X	.	8aan\	.	.
.	.	8bb-\	.	<
4AA-/	.	8bbn\	.	.
.	.	8ccc\J	.	.
=79	=79	=79	=79	=79
4D-\	.	8ddd-\L	.	.
.	.	8dddn\	.	.
4A-\ 4d- 4f	.	8eee-\	.	.
.	.	8eeen\	.	[
4A-\ 4d- 4f	.	8fff\	.	.
.	.	8ggg-X\J	.	.
=80	=80	=80	=80	=80
4E-\	.	8fff\L	.	.
.	.	8fff-X\	.	.
4A-\ 4c 4g-X	.	8eee-\	.	.
.	.	8eee--\	.	>
4A-\ 4c 4g-	.	8ddd-\	.	.
.	.	8ccc\J	.	.
=81	=81	=81	=81	=81
4F\	.	8ccc-X\L	.	.
.	.	8bb-\	.	.
4A-\ 4d- 4f	.	8bb--\	.	.
.	.	8aa-\	.	]
4A-\ 4d- 4f	.	8gg\	.	.
.	.	8aa-\J	.	.
=82	=82	=82	=82	=82
4Dn\	.	8aan\L	.	<
.	.	8bb-\	.	.
4B-\ 4f 4a-	.	8bbn\	.	.
.	.	8ccc\	.	.
4BB-/	.	8ccc#X\	.	.
.	.	8dddn\J	.	[[
!!LO:LB:g=original	!	!	!	!
=83	=83	=83	=83	=83
4E-\	.	8eee-\L	.	.
.	.	8eeen\	.	.
4B-\ 4e- 4gn	.	8fff\	.	.
.	.	8fff#X\	.	.
4B-\ 4e- 4gny	.	8ggg\	.	.
.	.	8aaa-\J	.	.
=84	=84	=84	=84	=84
4F\	.	8ggg\L	.	>
.	.	8ggg-X\	.	.
4B-\ 4dn 4a-	.	8fff\	.	.
.	.	8fff-X\	.	.
4B-\ 4d 4a-	.	8eee-\	.	.
.	.	8dddn\J	.	.
=85	=85	=85	=85	=85
4G\	.	8ddd-X\L	.	.
.	.	8ccc\	.	]
4B-\ 4e- 4g	.	8ccc-X\	.	.
.	.	8bb-\	.	.
4B-\ 4e- 4g	.	8aan\	.	.
.	.	8bb-\J	.	.
*clefG2	*	*	*	*
=86	=86	=86	=86	=86
4G/	.	8bbn\L	.	<
.	.	8ccc\	.	.
4d-/ 4e- 4b-	.	8ddd-\	.	.
.	.	8dddn\	.	.
4d-/ 4e- 4b-	.	8eee-\	.	.
.	.	8eeen\J	.	[[
=87	=87	=87	=87	=87
!	!	!LO:TX:t=P:problem: grupy ósemek zapisane pod jedną belką - błąd wyświetlania tupletu w Verovio przy zastosowaniu jednej belki	!	!
4A-/	.	8ff\L	.	.
*	*	*8va	*	*
.	.	8fff#X\J	.	.
!	!	!LO:TUP:a:problem:klamra łukowa i cyfra	!	!
4e-/ 4a- 4cc-X	.	12ggg\LL	.	.
.	.	12aaa-\	.	.
.	.	12aaan\JJ	.	.
!	!	!LO:TUP:a:problem:klamra łukowa i cyfra	!	!
4e-/ 4a- 4cc-	.	12bbb-\LL	.	.
.	.	12bbbn\	.	.
.	.	12cccc\JJ	.	.
!!LO:LB:g=original	!	!	!	!
=88	=88	=88	=88	=88
4B-/	.	8dddd-\L	.	ff
.	.	8ddddn\	.	.
4e-/ 4g 4dd-	.	8eeee-\	.	.
.	.	8eeeen\	.	.
!	!	!LO:TX:a:Bi:t=tutta la forza	!	!
!	!	!LO:TUP:a:problem:klamra łukowa i cyfra	!	!
4e-/ 4g 4dd-	.	12ffff\	.	.
.	.	12ffff#X\	.	.
.	.	12gggg\J	.	.
=89	=89	=89	=89	=89
4c-X/	.	8aaaa-\L	.	.
.	.	8gggg\	.	.
4e-/ 4a- 4cc-X	.	8gggg-X\	.	.
.	.	8ffff\	.	.
4e-/ 4a- 4cc-	.	8ffff-X\	.	.
.	.	8eeee-\J	.	.
=90	=90	=90	=90	=90
4e-/ 4a- 4cc-X	.	8eeee--\L	.	.
.	.	8dddd-\	.	.
4r	.	8cccc\	.	.
.	.	8cccc-X\	.	.
4r	.	8bbb-\	.	.
.	.	8bbb--\J	.	.
*clefF4	*	*	*	*
=91	=91	=91	=91	=91
!	!	!LO:TUP:a:problem:klamra łukowa i cyfra	!	!
4FF-X/	.	12aaa-\L	.	.
.	.	12ggg\	.	.
.	.	12ggg-X\J	.	.
!	!	!LO:TUP:a:problem:klamra łukowa i cyfra	!	!
4F-X\ 4A- 4c-X	.	12fff\L	.	.
.	.	12fff-X\	.	.
*	*	*X8va	*	*
.	.	12eee-\J	.	.
!	!	!LO:TUP:a:problem:klamra łukowa i cyfra	!	!
4F-\ 4A- 4c-	.	12eee--\L	.	.
.	.	12ddd-\	.	.
.	.	12ccc\J	.	.
!!LO:LB:g=original	!	!	!	!
=92	=92	=92	=92	=92
!	!	!LO:TUP:a:problem:klamra łukowa i cyfra	!	!
4F-X\ 4A- 4c-X	.	12ccc-X\L	.	.
.	.	12bb-\	.	.
.	.	12bb--\J	.	.
!	!	!LO:TUP:a:problem:klamra łukowa i cyfra	!	!
4r	.	12aa-\L	.	.
.	.	12gg\	.	.
.	.	12gg-X\J	.	.
4FF-X/ 4BB- 4F-X	.	16ff\LL	.	.
.	.	16ff-X\	.	.
.	.	16ee-\	.	.
.	.	16ddn\JJ	.	.
=93	=93	=93	=93	=93
4EE-/ 4BB- 4E-	.	4ee-\	.	.
4r	.	8e-/L	.	.
.	.	8e-/	.	.
4r	.	8e-/	.	.
.	.	8e-/J	.	.
=94	=94	=94	=94	=94
4AA-\ 4E- 4c-X	.	4e-/	.	.
4D-\ 4B-	.	4e-/	.	.
4C-X\ 4A-	.	4e-/	.	.
=95	=95	=95	=95	=95
4EE-/ 4BB- 4G	.	4e-/	.	.
4r	.	8ee-\L	.	.
.	.	8ee-\	.	.
4r	.	8ee-\	.	.
.	.	8ee-\J	.	.
*clefG2	*	*	*	*
=96	=96	=96	=96	=96
4A-/ 4e- 4cc-X	.	4ee-\	.	.
4d-/ 4b-	.	4ee-\	.	.
4c-X/ 4a-	.	4ee-\	.	.
!!LO:LB:g=original	!	!	!	!
=97	=97	=97	=97	=97
4E-/ 4B- 4g	.	4ee-\	.	.
4r	.	8ee-\L	.	.
.	.	8ee-\	.	.
4r	.	8ee-\	.	.
.	.	8ee-\J	.	.
=98	=98	=98	=98	=98
2.r	.	4ee-\	.	.
.	.	8een\L	.	>
.	.	8ee\	.	.
!	!	!LO:TX:a:Bi:t=rallentando	!	!
.	.	8ee\	.	.
.	.	8ee\J	.	.
=99	=99	=99	=99	=99
2.r	.	4een\	.	] pp
.	.	8ff\L	.	.
.	.	8ff\	.	.
.	.	8ff\	.	.
.	.	8ff\J	.	.
=100	=100	=100	=100	=100
!	!	!LO:TUP:a:problem:klamra łukowa i cyfra	!	!
2.r	.	12gg-X\L	.	.
.	.	12aa-\	.	.
.	.	12gg-\J	.	.
.	.	4ff'\	.	.
.	.	4gg-'\	.	.
*clefF4	*	*	*	*
=101	=101	=101	=101	=101
!	!	!LO:TX:b:Bi:t=dolcissimo	!	!
!	!	!LO:TX:a:Bi:t=poco più lento	!	!
.	.	8qgg-X/	.	.
4GG-X/	.	(4.eee-\	.	.
4B-\ 4d- 4g-X	.	.	.	.
.	.	8ddd-\	.	.
4B-\ 4d- 4g-	.	4ff-X\)	.	.
=102	=102	=102	=102	=102
!	!	!LO:TUP:a:problem:klamra łukowa i cyfra	!	!
4GG-X/	.	12ff-X\L	.	.
.	.	12gg-X\	.	.
.	.	12ff-\J	.	.
4B-\ 4d- 4g-X	.	4ee-'\	.	.
4B-\ 4d- 4g-	.	4ff-'\	.	.
!!LO:PB:g=original	!	!	!	!
=103	=103	=103	=103	=103
.	.	8qff-X/	.	.
4C-X/	.	(4.ddd-\	.	.
4G-X\ 4c-X 4e- 4g-X	.	.	.	.
.	.	8ccc-X\	.	.
4G-\ 4c- 4e- 4g-	.	4ee-\)	.	.
=104	=104	=104	=104	=104
!	!	!LO:TUP:a:problem:klamra łukowa i cyfra	!	!
4C-X/	.	12ee-\L	.	<
.	.	12ff-X\	.	.
.	.	12ee-\J	.	.
4G-X\ 4c-X 4e- 4g-X	.	4ddn'\	.	.
4G-\ 4c- 4e- 4g-	.	4ee-'\	.	.
=105	=105	=105	=105	=105
.	.	8qee-/	.	[
4EE-/	.	(4.ccc-X\	.	.
4B-\ 4e- 4gn	.	.	.	.
.	.	8bb-\	.	.
4B-\ 4e- 4g	.	4dd-\)	.	.
=106	=106	=106	=106	=106
!	!	!LO:TUP:a:problem:klamra łukowa i cyfra	!	!
4EE-/	.	12dd-\L	.	.
.	.	12ee-\	.	.
.	.	12dd-\J	.	.
4B-\ 4e- 4g	.	4cc'\	.	.
4B-\ 4e- 4g	.	4dd-'\	.	.
=107	=107	=107	=107	=107
.	.	8qdd-/	.	.
4C/	.	(4.bb-\	.	.
4c\ 4e- 4a-	.	.	.	.
.	.	8aa-\	.	.
4c\ 4e- 4a-	.	4cc\)	.	.
=108	=108	=108	=108	=108
*	*	*8va	*	*
!	!	!LO:TX:a:B:t=Tempo I.o	!	!
!	!	!LO:TUP:a:problem:klamra łukowa i cyfra	!	!
4AAn/	.	12ggg-X\L	.	ff
.	.	12aaa-\	.	.
.	.	12ggg-\J	.	.
4An\ 4c 4e- 4g-X	.	4fff'\	.	.
4A\ 4c 4e- 4g-	.	4ggg-'\	.	.
=109	=109	=109	=109	=109
.	.	8qggg-X/	.	.
4BB-/	.	(4.eeee-\	.	.
4B-\ 4d- 4f	.	.	.	.
.	.	8dddd-\	.	.
8B-\ 8d- 8f	.	8fff\)	.	.
8r;	.	8r;	.	.
!!LO:LB:g=original	!	!	!	!
=110	=110	=110	=110	=110
!	!	!LO:TUP:a:problem:klamra łukowa i cyfra	!	!
4D-\	.	12fff-X\L	.	pp
.	.	12ggg-X\	.	.
.	.	12fff-\J	.	.
4A-\ 4B- 4d- 4f-X	.	4eee-'\	.	.
4A-\ 4B- 4d- 4f-	.	4fff-'\	.	.
=111	=111	=111	=111	=111
.	.	8qfff-X/	.	.
4E-\	.	(4.dddd-\	.	.
4A-\ 4c 4e-	.	.	.	.
.	.	8cccc\	.	.
4A-\ 4c 4e-	.	4eee-\)	.	.
*	*	*X8va	*	*
=112	=112	=112	=112	=112
!	!	!LO:TX:b:Bi:t=risoluto	!	!
!	!	!LO:TUP:a:problem:klamra łukowa i cyfra	!	!
4E-\	.	12ee-\L	.	.
.	.	12ff\	.	.
.	.	12ee-\J	.	.
4A-\ 4c 4e-	.	4ddn'\	.	.
4A-\ 4c 4e-	.	4ee-'\	.	.
=113	=113	=113	=113	=113
.	.	8qee-/	.	.
4EE-/	.	(4.ccc^\	.	.
4B-\ 4e- 4g	.	.	.	.
.	.	8bb-\	.	.
4B-\ 4e- 4g	.	4dd-\)	.	.
=114	=114	=114	=114	=114
.	.	8qee-/	.	.
4EE-/	.	(4.ccc^\	.	.
4B-\ 4e- 4g	.	.	.	.
.	.	8bb-\	.	.
4B-\ 4e- 4g	.	4dd-\)	.	.
=115	=115	=115	=115	=115
4AA-/	.	2.cc\ 2.aa-	.	.
4A-\ 4c 4e-	.	.	.	.
4r	.	.	.	.
=	=	=	=	=
4AA-/	.	4r	.	.
!!LO:LB:g=original	!	!	!	!
=116||	=116||	=116||	=116||	=116||
*k[b-e-a-d-g-]	*	*k[b-e-a-d-g-]	*	*
!	!	!LO:TX:a:B:t=Elegante e scherzando.	!	!
4r	.	4aa-\	.	p
4r	.	4gg-\ 4aa-	.	.
=117	=117	=117	=117	=117
4D-\	.	4ff\ 4aa-	.	.
4A-\ 4d- 4f	.	2ff^\ 2bb-	.	.
4A-\ 4d- 4f	.	.	.	.
=118	=118	=118	=118	=118
4AA-/	.	4ff\ 4aa-	.	.
4A-\ 4d- 4f	.	2ff^\ 2ddd-	.	.
4A-\ 4d- 4f	.	.	.	.
=119	=119	=119	=119	=119
.	.	8qeee-/	.	.
4C\	.	4gg-\ 4ddd-	.	.
4A-\ 4c 4g-	.	[2gg-^\ [2ccc	.	.
4A-\ 4c 4g-	.	.	.	.
=120	=120	=120	=120	=120
4AA-/	.	4gg-\] 4ccc]	.	.
4A-\ 4c 4g-	.	4cc\ 4ee-	.	.
4A-\ 4c 4g-	.	4cc\ 4ee- 4ff	.	.
=121	=121	=121	=121	=121
4E-\	.	4cc\ 4ee- 4gg-	.	.
4A-\ 4c	.	2cc^\ 2ee- 2aa-	.	.
4A-\ 4c	.	.	.	.
=122	=122	=122	=122	=122
4AA-/	.	4cc\ 4ee- 4gg-	.	.
4E-\ 4A- 4c	.	2cc^\ 2gg- 2bb-	.	.
4E-\ 4A- 4c	.	.	.	.
!!LO:LB:g=original	!	!	!	!
=123	=123	=123	=123	=123
.	.	8qccc/	.	.
(8DD-\L	.	4dd-\ 4gg- 4bb-	.	.
8AA-\	.	.	.	.
8D-\	.	[2dd-^\ [2ff [2aa-	.	.
8F\	.	.	.	.
8A-\	.	.	.	.
8d-\J)	.	.	.	.
=124	=124	=124	=124	=124
4f\	.	4dd-\] 4ff] 4aa-]	.	.
4F\ 4A- 4d-	.	4f\ 4a- 4dd-	.	.
4F\ 4A- 4d-	.	4f\ 4a- 4ee-	.	.
=125	=125	=125	=125	=125
*^	*	*	*	*
4r	2.C-X\	.	4a-\ 4dd- 4ff	.	.
4F/ 4A- 4d-	.	.	2a-\ 2dd- 2gg-	.	.
4F/ 4A- 4d-	.	.	.	.	.
=126	=126	=126	=126	=126	=126
4r	2.BB-\	.	4a-\ 4ddn 4ff	.	.
4F/ 4A- 4dn	.	.	2cc-X\ 2ddn 2aa-	.	.
4F/ 4A- 4d	.	.	.	.	.
*v	*v	*	*	*	*
=127	=127	=127	=127	=127
.	.	8qbb-/	.	.
8EE-/L	.	4cc-X\ 4ddn 4aa-	.	.
8GG-/	.	.	.	.
8BB-/	.	[2b-\ [2ee- [2gg-	.	.
8E-/	.	.	.	.
8G-/	.	.	.	.
8B-/J	.	.	.	.
=128	=128	=128	=128	=128
4e-\	.	4b-\] 4ee-] 4gg-]	.	.
4E-\ 4G- 4e-	.	4g-/ 4b-	.	.
4E-\ 4G- 4e-	.	4g-/ 4bn	.	.
=129	=129	=129	=129	=129
*^	*	*	*	*
4r	2.BB--\	.	4g-\ 4cc	.	.
4F/ 4A- 4d-	.	.	2g-\ 2dd-	.	.
4F/ 4A- 4d-	.	.	.	.	.
!!LO:LB:g=original	!	!	!	!	!
=130	=130	=130	=130	=130	=130
4r	2.AA-\	.	4g-\ 4cc 4ff	.	.
4E-/ 4G- 4A- 4c	.	.	2g-\ 2cc 2ee-	.	.
4E-/ 4G- 4A- 4c	.	.	.	.	.
*v	*v	*	*	*	*
=131	=131	=131	=131	=131
.	.	8qff/	.	.
4DD-/	.	4g-\ 4ee-	.	.
4D-\ 4F	.	2f\ 2a- 2dd-	.	.
4D-\ 4F 4A-	.	.	.	.
=132	=132	=132	=132	=132
4D-\ 4F 4A- 4d-	.	4r	.	.
4r	.	4dd-\ 4ff	.	.
4r	.	4ee-\ 4gg-	.	.
=133	=133	=133	=133	=133
(8DD-\L	.	4ff\ 4aa-	.	.
8AA-\	.	.	.	.
8D-\	.	2ff^\ 2bb-	.	.
8F\	.	.	.	.
8A-\	.	.	.	.
8d-\J	.	.	.	.
=134	=134	=134	=134	=134
8f\L	.	4ff\ 4aa-	.	.
8e-\	.	.	.	.
8d-\	.	2ff^\ 2ddd-	.	.
8c\	.	.	.	.
8B-\	.	.	.	.
8A-\J)	.	.	.	.
=135	=135	=135	=135	=135
.	.	8qeee-/	.	.
(8E-\L	.	4gg-\ 4ddd-	.	.
8F\	.	.	.	.
8A-\	.	2gg-^\ 2ccc	.	.
8e->\	.	.	.	.
8g->\	.	.	.	.
8a->\J	.	.	.	.
=136	=136	=136	=136	=136
4cc>\)	.	4rgg	.	.
4r	.	4cc\ 4ee-	.	.
4r	.	4cc\ 4ee- 4ff	.	.
!!LO:PB:g=original	!	!	!	!
=137	=137	=137	=137	=137
(8AAA-/L	.	4cc\ 4ee- 4gg-	.	.
8EE-/	.	.	.	.
8AA-/	.	2cc^\ 2ee- 2aa-	.	.
8C/	.	.	.	.
8E-/	.	.	.	.
8A-/J	.	.	.	.
=138	=138	=138	=138	=138
8c\L	.	4cc\ 4ee- 4gg-	.	.
8B-\	.	.	.	.
8A-\	.	2cc^\ 2gg- 2bb-	.	.
8G-\	.	.	.	.
8F\	.	.	.	.
8E-\J)	.	.	.	.
=139	=139	=139	=139	=139
.	.	8qccc/	.	.
(8D-/L	.	4dd-\ 4gg- 4bb-	.	.
8F/	.	.	.	.
8AA-/	.	2dd-\ 2ff 2aa-	.	.
8D-/	.	.	.	.
8FF/	.	.	.	.
8AA-/J)	.	.	.	.
=140	=140	=140	=140	=140
4DD-/	.	4r	.	.
4r	.	4f/ 4a- 4dd-	.	.
4r	.	4f/ 4a- 4ee-	.	.
=141	=141	=141	=141	=141
8C-X^\L	.	4a-\ 4dd- 4ff	.	.
8F\	.	.	.	.
8A-\	.	2a-^\ 2dd- 2gg-	.	.
8d-\	.	.	.	.
8A-\	.	.	.	.
8F\J	.	.	.	.
=142	=142	=142	=142	=142
8BB-^\L	.	4a-\ 4ddn 4ff	.	.
8F\	.	.	.	.
8B-\	.	2a-^\ 2dd-X 2aa-	.	.
8dn\	.	.	.	.
8B-\	.	.	.	.
8F\J	.	.	.	.
!!LO:LB:g=original	!	!	!	!
=143	=143	=143	=143	=143
.	.	8qbb-/	.	.
8EE-/L	.	4cc-X\ 4ddn 4aa-	.	.
8GG-/	.	.	.	.
8BB-/	.	2b-\ 2ee- 2gg-	.	.
8E-/	.	.	.	.
8G-/	.	.	.	.
8B-/J	.	.	.	.
=144	=144	=144	=144	=144
4e-\	.	4r	.	.
4E-\	.	4g-/ 4b-	.	.
4r	.	4g-/ 4bn	.	.
=145	=145	=145	=145	=145
(8BB--\L	.	4g-\ 4cc	.	.
8E-\	.	.	.	.
8G-\	.	2g-^\ 2dd-	.	.
8d-\	.	.	.	.
!	!	!LO:TX:a:i:t=rall.	!	!
8G-\	.	.	.	.
8E-\J)	.	.	.	.
=146	=146	=146	=146	=146
(8AA-\L	.	4g-\ 4cc 4ff	.	.
8E-\	.	.	.	.
8A-\	.	2g-^\ 2cc 2ee-	.	.
8c\	.	.	.	.
8A-\	.	.	.	.
8E-\J)	.	.	.	.
=	=	=	=	=
.	.	8qee-/	.	.
4DD-/	.	4f/ 4a- 4dd-	.	.
4F\ 4A- 4d-	.	4r	.	.
=147!|:	=147!|:	=147!|:	=147!|:	=147!|:
*k[b-e-a-d-]	*	*k[b-e-a-d-]	*	*
!	!	!LO:TX:a:B:t=a tempo.	!	!
4r	.	4ee-\	.	.
!!LO:LB:g=original	!	!	!	!
=148	=148	=148	=148	=148
!	!	!LO:TUP:a:problem:klamra łukowa i cyfra	!	!
2.r	.	12ee-\L	.	.
.	.	12ff\	.	.
.	.	12ee-\J	.	.
.	.	4ddn'\	.	.
.	.	4ee-'\	.	.
=149	=149	=149	=149	=149
.	.	8qee-/	.	.
4E-\	.	(4.ccc\	.	.
4B-\ 4e- 4g	.	.	.	.
.	.	8bb-\	.	.
4B-\ 4e- 4g	.	4dd-\)	.	.
=150	=150	=150	=150	=150
!	!	!LO:TUP:a:problem:klamra łukowa i cyfra	!	!
4E-\	.	12dd-\L	.	.
.	.	12ee-\	.	.
.	.	12dd-\J	.	.
4B-\ 4e- 4g	.	4cc'\	.	.
4B-\ 4e- 4g	.	4dd-'\	.	.
=151	=151	=151	=151	=151
.	.	8qdd-/	.	.
4AA-/	.	(4.bb-\	.	.
4c\ 4e- 4a-	.	.	.	.
.	.	8aa-\	.	.
4c\ 4e- 4a-	.	4cc\)	.	.
=152	=152	=152	=152	=152
!	!	!LO:TUP:a:problem:klamra łukowa i cyfra	!	!
4AA-/	.	12cc\L	.	.
.	.	12dd-\	.	.
.	.	12cc\J	.	.
4c\ 4e- 4a-	.	4bn'\	.	.
4c\ 4e- 4a-	.	4cc'\	.	.
=153	=153	=153	=153	=153
.	.	8qcc/	.	.
4C/	.	(4.aa-\	.	.
4G\ 4c 4en	.	.	.	.
.	.	8gg\	.	.
4G\ 4c 4e	.	4b-\)	.	.
=154	=154	=154	=154	=154
!	!	!LO:TUP:a:problem:klamra łukowa i cyfra	!	!
4C/	.	12b-\L	.	.
.	.	12cc\	.	.
.	.	12b-\J	.	.
4G\ 4c 4en	.	4an'/	.	.
4G\ 4c 4e	.	4b-'\	.	.
!!LO:LB:g=original	!	!	!	!
=155	=155	=155	=155	=155
.	.	8qb-/	.	.
4F\	.	(4.gg\	.	.
4A-\ 4c 4f	.	.	.	.
.	.	8ff\	.	.
4A-\ 4c 4f	.	4a-/)	.	.
=156	=156	=156	=156	=156
!	!	!LO:TUP:a:problem:klamra łukowa i cyfra	!	!
4F\	.	12ff\L	.	.
.	.	12gg\	.	.
.	.	12ff\J	.	.
4A-\ 4c 4f	.	4een'\	.	.
4A-\ 4c 4f	.	4ff'\	.	.
=157	=157	=157	=157	=157
.	.	8qff/	.	.
4D-\	.	(4.eee-\	.	.
4A-\ 4d- 4f	.	.	.	.
.	.	8ddd-\	.	.
8A-\ 8d- 8f	.	8ff\)	.	.
8r;	.	8r;	.	.
=158	=158	=158	=158	=158
!	!	!LO:TUP:a:problem:klamra łukowa i cyfra	!	!
4D-\	.	12ff-X\L	.	.
.	.	12gg-X\	.	.
.	.	12ff-\J	.	.
4A-\ 4d- 4f-X	.	4ee-'\	.	.
4A-\ 4d- 4f-	.	4ff-'\	.	.
=159	=159	=159	=159	=159
.	.	8qff-X/	.	.
4E-\	.	(4.ddd-\	.	.
4A-\ 4c 4e-	.	.	.	.
.	.	8ccc\	.	.
4A-\ 4c 4e-	.	4ee-\)	.	.
=160	=160	=160	=160	=160
!	!	!LO:TUP:a:problem:klamra łukowa i cyfra	!	!
4E-\	.	12ee-\L	.	.
.	.	12ff\	.	.
.	.	12ee-\J	.	.
4A-\ 4c 4e-	.	4ddn'\	.	.
4A-\ 4c 4e-	.	4ee-'\	.	.
=161	=161	=161	=161	=161
.	.	8qee-/	.	.
4EE-/	.	(4.ccc\	.	.
4B-\ 4d- 4e- 4g	.	.	.	.
.	.	8bb-\	.	.
4B-\ 4d- 4e- 4g	.	4dd-\)	.	.
!!LO:LB:g=original	!	!	!	!
=162	=162	=162	=162	=162
.	.	8qee-/	.	.
4EE-/	.	(4.ccc\	.	.
4B-\ 4d- 4e- 4g	.	.	.	.
.	.	8bb-\	.	.
4B-\ 4d- 4e- 4g	.	4dd-\)	.	.
=	=	=	=	=
4AA-/	.	4cc\ 4aa-	.	.
4c\ 4e- 4a-	.	4r	.	.
=163:|!	=163:|!	=163:|!	=163:|!	=163:|!
!	!	!LO:TUP:a:problem:klamra łukowa i cyfra	!	!
4r	.	12aa-\L	.	.
.	.	12bb-\	.	.
.	.	12aa-\J	.	.
=164	=164	=164	=164	=164
4C/	.	8gg\L	.	.
.	.	8aa-\	.	.
4A-\ 4e- 4g-X	.	8aan\	.	.
.	.	8bb-\	.	.
4AA-/	.	8bbn\	.	.
.	.	8ccc\J	.	.
=165	=165	=165	=165	=165
4D-\	.	8ddd-\L	.	.
.	.	8dddn\	.	.
4A-\ 4d- 4f	.	8eee-\	.	.
.	.	8eeen\	.	.
4A-\ 4d- 4f	.	8fff\	.	.
.	.	8ggg\J	.	.
=166	=166	=166	=166	=166
4E-\	.	8fff\L	.	.
.	.	8fff-X\	.	.
4A-\ 4c 4g-X	.	8eee-\	.	.
.	.	8eee--\	.	.
4A-\ 4c 4g-	.	8ddd-\	.	.
.	.	8ccc\J	.	.
!!LO:LB:g=original	!	!	!	!
=167	=167	=167	=167	=167
4D-\	.	8ccc-X\L	.	.
.	.	8bb-\	.	.
4A-\ 4d- 4f	.	8bb--\	.	.
.	.	8aa-\	.	.
4A-\ 4d- 4f	.	8gg\	.	.
.	.	8aa-\J	.	.
=168	=168	=168	=168	=168
4Dn\	.	8aan\L	.	.
.	.	8bb-\	.	.
4B-\ 4f 4a-	.	8bbn\	.	.
.	.	8ccc\	.	.
4BB-/	.	8ddd-\	.	.
.	.	8dddn\J	.	.
=169	=169	=169	=169	=169
4E-\	.	8eee-\L	.	.
.	.	8eeen\	.	.
4B-\ 4e- 4gn	.	8fff\	.	.
.	.	8fff#X\	.	.
4B-\ 4e- 4g	.	8ggg\	.	.
.	.	8aaa-\J	.	.
=170	=170	=170	=170	=170
4F\	.	8ggg\L	.	.
.	.	8ggg-X\	.	.
4B-\ 4dn 4a-	.	8fff\	.	.
.	.	8fff-X\	.	.
4B-\ 4d 4a-	.	8eee-\	.	.
.	.	8eee--\J	.	.
=171	=171	=171	=171	=171
4G\	.	8ddd-\L	.	.
.	.	8ccc\	.	.
4B-\ 4e- 4g	.	8ccc-X\	.	.
.	.	8bb-\	.	.
4B-\ 4e- 4g	.	8aan\	.	.
.	.	8bb-\J	.	.
*clefG2	*	*	*	*
!!LO:PB:g=original	!	!	!	!
=172	=172	=172	=172	=172
4G/	.	8bbn\L	.	.
.	.	8ccc\	.	.
4d-/ 4e- 4b-	.	8ddd-\	.	.
.	.	8dddn\	.	.
4d-/ 4e- 4b-	.	8eee-\	.	.
.	.	8eeen\J	.	.
=173	=173	=173	=173	=173
*	*	*8va	*	*
!	!	!LO:TX:t=P:problem: grupy ósemek zapisane pod jedną belką - błąd wyświetlania tupletu w Verovio przy zastosowaniu jednej belki	!	!
4A-/	.	8fff\L	.	.
.	.	8fff#X\J	.	.
!	!	!LO:TUP:a:problem:klamra łukowa i cyfra	!	!
4e-/ 4a- 4cc-X	.	12ggg\LL	.	.
.	.	12aaa-\	.	.
.	.	12aaan\JJ	.	.
!	!	!LO:TUP:a:problem:klamra łukowa i cyfra	!	!
4e-/ 4a- 4cc-	.	12bbb-\LL	.	.
.	.	12bbbn\	.	.
.	.	12cccc\JJ	.	.
=174	=174	=174	=174	=174
4B-/	.	8dddd-\L	.	.
.	.	8ddddn\	.	.
4e-/ 4g 4dd-	.	8eeee-\	.	.
.	.	8eeeen\	.	.
!	!	!LO:TUP:a:problem:klamra łukowa i cyfra	!	!
4e-/ 4g 4dd-	.	12ffff\	.	.
.	.	12ffff#X\	.	.
.	.	12gggg\J	.	.
=175	=175	=175	=175	=175
4c-X/	.	8aaaa-\L	.	.
.	.	8gggg\	.	.
4e-/ 4a- 4cc-X	.	8gggg-X\	.	.
.	.	8ffff\	.	.
4e-/ 4a- 4cc-	.	8ffff-X\	.	.
.	.	8eeee-\J	.	.
=176	=176	=176	=176	=176
4e-/ 4a- 4cc-X	.	8eeee--\L	.	.
.	.	8dddd-\	.	.
4r	.	8cccc\	.	.
.	.	8cccc-X\	.	.
4r	.	8bbb-\	.	.
.	.	8bbb--\J	.	.
*clefF4	*	*	*	*
!!LO:LB:g=original	!	!	!	!
=177	=177	=177	=177	=177
!	!	!LO:TUP:a:problem:klamra łukowa i cyfra	!	!
4FF-X/	.	12aaa-\L	.	.
.	.	12ggg\	.	.
.	.	12ggg-X\J	.	.
!	!	!LO:TUP:a:problem:klamra łukowa i cyfra	!	!
4F-X\ 4A- 4c-X	.	12fff\L	.	.
.	.	12fff-X\	.	.
.	.	12eee-\J	.	.
!	!	!LO:TUP:a:problem:klamra łukowa i cyfra	!	!
4F-\ 4A- 4c-	.	12eee--\L	.	.
.	.	12ddd-\	.	.
.	.	12ccc\J	.	.
*	*	*X8va	*	*
=178	=178	=178	=178	=178
!	!	!LO:TUP:a:problem:klamra łukowa i cyfra	!	!
4F-X\ 4A- 4c-X	.	12ccc-X\L	.	.
.	.	12bb-\	.	.
.	.	12bb--\J	.	.
!	!	!LO:TUP:a:problem:klamra łukowa i cyfra	!	!
4r	.	12aa-\L	.	.
.	.	12gg\	.	.
.	.	12gg-X\J	.	.
4FF-X/ 4BB- 4F-X	.	16ff\LL	.	.
.	.	16ff-X\	.	.
.	.	16ee-\	.	.
.	.	16ddn\JJ	.	.
=179	=179	=179	=179	=179
4EE-/ 4BB- 4E-	.	4ee-\	.	.
4r	.	8e-/L	.	.
.	.	8e-/	.	.
4r	.	8e-/	.	.
.	.	8e-/J	.	.
=180	=180	=180	=180	=180
4AA-\ 4E- 4c-X	.	4e-/	.	.
4D-\ 4B-	.	4e-/	.	.
4C-X\ 4A-	.	4e-/	.	.
=181	=181	=181	=181	=181
4EE-/ 4BB- 4G	.	4e-/	.	.
4r	.	8ee-\L	.	.
.	.	8ee-\	.	.
4r	.	8ee-\	.	.
.	.	8ee-\J	.	.
*clefG2	*	*	*	*
!!LO:LB:g=original	!	!	!	!
=182	=182	=182	=182	=182
4A-/ 4e- 4cc-X	.	4ee-\	.	.
4d-/ 4b-	.	4ee-\	.	.
4c-X/ 4a-	.	4ee-\	.	.
=183	=183	=183	=183	=183
4E-/ 4B- 4g	.	4ee-\	.	>
4r	.	8ee-\L	.	.
.	.	8ee-\	.	.
4r	.	8ee-\	.	.
.	.	8ee-\J	.	]]
=184	=184	=184	=184	=184
4e-/ 4f 4a-	.	4ee-\	.	.
4r	.	8ee-\L	.	.
!	!	!LO:TX:a:i:t=rallent.	!	!
.	.	8ee-\	.	.
4e-/ 4f#X 4an	.	8ee-\	.	.
.	.	8ee-\J	.	.
=185	=185	=185	=185	=185
4e-/ 4g 4b-	.	4ee-\	.	.
4r	.	8ee-\L	.	p
.	.	8ee-\	.	.
4r;	.	8ee-\	.	.
.	.	8ee-;\J	.	.
=186	=186	=186	=186	=186
!	!	!LO:TX:a:B:t=Tempo I.o	!	!
!	!	!LO:TUP:a:problem:klamra łukowa i cyfra	!	!
2.r	.	12ee-\L	.	pp
.	.	12ff\	.	.
.	.	12ee-\J	.	.
.	.	4ddn'\	.	.
.	.	4ee-'\	.	.
*clefF4	*	*	*	*
=187	=187	=187	=187	=187
.	.	8qee-/	.	.
4E-\	.	(4.ccc\	.	.
4B-\ 4e- 4g	.	.	.	.
.	.	8bb-\	.	.
4B-\ 4e- 4g	.	4dd-\)	.	.
=188	=188	=188	=188	=188
!	!	!LO:TUP:a:problem:klamra łukowa i cyfra	!	!
4E-\	.	12dd-\L	.	.
.	.	12ee-\	.	.
.	.	12dd-\J	.	.
4B-\ 4e- 4g	.	4cc'\	.	.
4B-\ 4e- 4g	.	4dd-'\	.	.
!!LO:LB:g=original	!	!	!	!
=189	=189	=189	=189	=189
.	.	8qdd-/	.	.
4AA-/	.	(4.bb-\	.	.
4c\ 4e- 4a-	.	.	.	.
.	.	8aa-\	.	.
4c\ 4e- 4a-	.	4cc\)	.	.
=190	=190	=190	=190	=190
!	!	!LO:TUP:a:problem:klamra łukowa i cyfra	!	!
4AA-/	.	12cc\L	.	.
.	.	12dd-\	.	.
.	.	12cc\J	.	.
4c\ 4e- 4a-	.	4bn'\	.	.
4c\ 4e- 4a-	.	4cc'\	.	.
=191	=191	=191	=191	=191
.	.	8qcc/	.	.
4C/	.	(4.aa-\	.	.
4G\ 4c 4en	.	.	.	.
.	.	8gg\	.	.
4G\ 4c 4e	.	4b-\)	.	.
=192	=192	=192	=192	=192
!	!	!LO:TUP:a:problem:klamra łukowa i cyfra	!	!
4C/	.	12b-\L	.	.
.	.	12cc\	.	.
.	.	12b-\J	.	.
4G\ 4c 4en	.	4an'/	.	.
4G\ 4c 4e	.	4b-'\	.	.
=193	=193	=193	=193	=193
.	.	8qb-/	.	.
4F\	.	(4.gg\	.	.
4A-\ 4c 4f	.	.	.	.
.	.	8ff\	.	.
4A-\ 4c 4f	.	4a-/)	.	.
=194	=194	=194	=194	=194
!	!	!LO:TUP:a:problem:klamra łukowa i cyfra	!	!
4F\	.	12ff\L	.	<
.	.	12gg\	.	.
.	.	12ff\J	.	.
4A-\ 4c 4f	.	4een'\	.	.
4A-\ 4c 4f	.	4ff'\	.	[[
=195	=195	=195	=195	=195
.	.	8qff/	.	.
4D-\	.	(4.eee-\	.	f
4A-\ 4d- 4f	.	.	.	.
.	.	8ddd-\	.	.
8A-\ 8d- 8f	.	8ff\)	.	.
8r;	.	8r;	.	.
!!LO:LB:g=original	!	!	!	!
=196	=196	=196	=196	=196
!	!	!LO:TUP:a:problem:klamra łukowa i cyfra	!	!
4D-\	.	12ff-X\L	.	.
.	.	12gg-X\	.	.
.	.	12ff-\J	.	.
4A-\ 4d- 4f-X	.	4ee-'\	.	.
4A-\ 4d- 4f-	.	4ff-'\	.	.
=197	=197	=197	=197	=197
.	.	8qff-X/	.	.
4E-\	.	(4.ddd-\	.	.
4A-\ 4c 4e-	.	.	.	.
.	.	8ccc\	.	.
4A-\ 4c 4e-	.	4ee-\)	.	.
=198	=198	=198	=198	=198
!	!	!LO:TUP:a:problem:klamra łukowa i cyfra	!	!
4E-\	.	12ee-\L	.	.
.	.	12ff\	.	.
.	.	12ee-\J	.	.
4A-\ 4c 4e-	.	4ddn'\	.	.
4A-\ 4c 4e-	.	4ee-'\	.	.
=199	=199	=199	=199	=199
.	.	8qee-/	.	.
4EE-/	.	(4.ccc\	.	.
4B-\ 4e- 4g	.	.	.	.
.	.	8bb-\	.	.
4B-\ 4e- 4g	.	4dd-\)	.	.
=200	=200	=200	=200	=200
.	.	8qee-/	.	.
4EE-/	.	(4.ccc\	.	.
4B-\ 4e- 4g	.	.	.	.
.	.	8bb-\	.	.
4B-\ 4e- 4g	.	4dd-\)	.	.
=201	=201	=201	=201	=201
4AA-/	.	4cc\ 4aa-	.	.
4c\ 4e- 4a-	.	4r	.	.
4r	.	4r	.	.
=202||	=202||	=202||	=202||	=202||
!	!	!LO:TUP:a:problem:klamra łukowa i cyfra	!	!
4r	.	12aa-\L	.	.
.	.	12bb-\	.	.
.	.	12aa-\J	.	.
!!LO:LB:g=original	!	!	!	!
=203	=203	=203	=203	=203
4C/	.	8gg\L	.	.
.	.	8aa-\	.	.
4A-\ 4e- 4g-X	.	8aan\	.	.
.	.	8bb-\	.	<
4AA-/	.	8bbn\	.	.
.	.	8ccc\J	.	.
=204	=204	=204	=204	=204
4D-\	.	8ddd-\L	.	.
.	.	8dddn\	.	.
4A-\ 4d- 4f	.	8eee-\	.	.
.	.	8eeen\	.	[
4A-\ 4d- 4f	.	8fff\	.	.
.	.	8ggg-X\J	.	.
=205	=205	=205	=205	=205
4E-\	.	8fff\L	.	.
.	.	8fff-X\	.	.
4A-\ 4c 4g	.	8eee-\	.	.
.	.	8eee--\	.	>
4A-\ 4c 4g	.	8ddd-\	.	.
.	.	8ccc\J	.	.
=206	=206	=206	=206	=206
4F\	.	8ccc-X\L	.	.
.	.	8bb-\	.	.
4A-\ 4d- 4f	.	8bb--\	.	]
.	.	8aa-\	.	.
4A-\ 4d- 4f	.	8gg\	.	.
.	.	8aa-\J	.	.
=207	=207	=207	=207	=207
4Dn\	.	8aan\L	.	<
.	.	8bb-\	.	.
4B-\ 4f 4a-	.	8bbn\	.	.
.	.	8ccc\	.	.
4BB-/	.	8ccc#\	.	.
.	.	8dddn\J	.	[[
!!LO:PB:g=original	!	!	!	!
=208	=208	=208	=208	=208
4E-\	.	8eee-\L	.	.
.	.	8eeen\	.	.
4B-\ 4e- 4gn	.	8fff\	.	.
.	.	8fff#X\	.	.
4B-\ 4e- 4g	.	8ggg\	.	.
.	.	8aaa-\J	.	.
=209	=209	=209	=209	=209
4F\	.	8ggg\L	.	.
.	.	8ggg-X\	.	.
4B-\ 4dn 4a-	.	8fff\	.	>
.	.	8fff-X\	.	.
4B-\ 4d 4a-	.	8eee-\	.	.
.	.	8dddn\J	.	.
=210	=210	=210	=210	=210
4G\	.	8ddd-X\L	.	.
.	.	8ccc\	.	]
4B-\ 4e- 4g	.	8ccc-X\	.	.
.	.	8bb-\	.	.
4B-\ 4e- 4g	.	8aan\	.	.
.	.	8bb-\J	.	.
*clefG2	*	*	*	*
=211	=211	=211	=211	=211
4G/	.	8bbn\L	.	<
.	.	8ccc\	.	.
4d-/ 4e- 4b-	.	8ddd-\	.	.
.	.	8dddn\	.	.
4d-/ 4e- 4b-	.	8eee-\	.	.
.	.	8eeen\J	.	[[
=212	=212	=212	=212	=212
*	*	*8va	*	*
!	!	!LO:TX:t=P:problem: grupy ósemek zapisane pod jedną belką - błąd wyświetlania tupletu w Verovio przy zastosowaniu jednej belki	!	!
4A-/	.	8fff\L	.	.
.	.	8fff#X\J	.	.
!	!	!LO:TUP:a:problem:klamra łukowa i cyfra	!	!
4e-/ 4a- 4cc-X	.	12ggg\LL	.	.
.	.	12aaa-\	.	.
.	.	12aaan\JJ	.	.
!	!	!LO:TUP:a:problem:klamra łukowa i cyfra	!	!
4e-/ 4a- 4cc-	.	12bbb-\LL	.	.
.	.	12bbbn\	.	.
.	.	12cccc\JJ	.	.
!!LO:LB:g=original	!	!	!	!
=213	=213	=213	=213	=213
4B-/	.	8dddd-\L	.	ff
.	.	8ddddn\	.	.
4e-/ 4g 4dd-	.	8eeee-\	.	.
.	.	8eeeen\	.	.
!	!	!LO:TUP:a:problem:klamra łukowa i cyfra	!	!
4e-/ 4g 4dd-	.	12ffff\	.	.
.	.	12ffff#X\	.	.
.	.	12gggg\J	.	.
=214	=214	=214	=214	=214
4c-X/	.	8aaaa-\L	.	.
.	.	8gggg\	.	.
!	!	!LO:TX:b:Bi:t=tutta la forza	!	!
4e-/ 4a- 4cc-X	.	8gggg-X\	.	.
.	.	8ffff\	.	.
4e-/ 4a- 4cc-	.	8ffff-X\	.	.
.	.	8eeee-\J	.	.
=215	=215	=215	=215	=215
4e-/ 4a- 4cc-X	.	8eeee--\L	.	.
.	.	8dddd-\	.	.
4r	.	8cccc\	.	.
.	.	8cccc-X\	.	.
4r	.	8bbb-\	.	.
.	.	8bbb--\J	.	.
*clefF4	*	*	*	*
=216	=216	=216	=216	=216
!	!	!LO:TUP:a:problem:klamra łukowa i cyfra	!	!
4FF-X/	.	12aaa-\L	.	.
.	.	12ggg\	.	.
.	.	12ggg-X\J	.	.
!	!	!LO:TUP:a:problem:klamra łukowa i cyfra	!	!
4F-X\ 4A- 4c-X	.	12fff\L	.	.
.	.	12fff-X\	.	.
.	.	12eeee-\J	.	.
!	!	!LO:TUP:a:problem:klamra łukowa i cyfra	!	!
4F-\ 4A- 4c-	.	12eeee--\L	.	.
.	.	12dddd-\	.	.
.	.	12cccc\J	.	.
*	*	*X8va	*	*
!!LO:LB:g=original	!	!	!	!
=217	=217	=217	=217	=217
!	!	!LO:TUP:a:problem:klamra łukowa i cyfra	!	!
4F-X\ 4A- 4c-X	.	12ccc-X\L	.	.
.	.	12bb-\	.	.
.	.	12bb--\J	.	.
!	!	!LO:TUP:a:problem:klamra łukowa i cyfra	!	!
4r	.	12aa-\L	.	.
.	.	12gg\	.	.
.	.	12gg-X\J	.	.
4FF-X/ 4BB- 4F-X	.	16ff\LL	.	.
.	.	16ff-X\	.	.
.	.	16ee-\	.	.
.	.	16ddn\JJ	.	.
=218	=218	=218	=218	=218
4EE-/ 4BB- 4E-	.	4ee-\	.	.
4r	.	8e-/L	.	.
.	.	8e-/	.	.
4r	.	8e-/	.	.
.	.	8e-/J	.	.
=219	=219	=219	=219	=219
4AA-\ 4E- 4c-X	.	4e-/	.	.
4D-\ 4B-	.	4e-/	.	.
4C-X\ 4A-	.	4e-/	.	.
=220	=220	=220	=220	=220
4EE-/ 4BB- 4G	.	4e-/	.	.
4r	.	8ee-\L	.	.
.	.	8ee-\	.	.
4r	.	8ee-\	.	.
.	.	8ee-\J	.	.
*clefG2	*	*	*	*
=221	=221	=221	=221	=221
4A-/ 4e- 4cc-X	.	4ee-\	.	.
4d-/ 4b-	.	4ee-\	.	.
4c-X/ 4a-	.	4ee-\	.	.
=222	=222	=222	=222	=222
4E-/ 4B- 4g	.	4ee-\	.	.
4r	.	8ee-\L	.	.
.	.	8ee-\	.	.
4r	.	8ee-\	.	.
.	.	8ee-\J	.	.
!!LO:LB:g=original	!	!	!	!
=223	=223	=223	=223	=223
2.r	.	4ee-\	.	.
!	!	!LO:TX:a:Bi:t=rallentando.	!	!
.	.	8een\L	.	>
.	.	8ee\	.	.
.	.	8ee\	.	.
.	.	8ee\J	.	.
=224	=224	=224	=224	=224
2.r	.	4een\	.	.
.	.	8ff\L	.	] pp
.	.	8ff\	.	.
.	.	8ff\	.	.
.	.	8ff\J	.	.
=225	=225	=225	=225	=225
!	!	!LO:TUP:a:problem:klamra łukowa i cyfra	!	!
2.r	.	12gg-X\L	.	.
.	.	12aa-\	.	.
.	.	12gg-\J	.	.
.	.	4ff'\	.	.
.	.	4gg-'\	.	.
*clefF4	*	*	*	*
=226	=226	=226	=226	=226
!	!	!LO:TX:b:Bi:t=dolcissimo	!	!
!	!	!LO:TX:a:Bi:t=poco più lento	!	!
.	.	8qgg-X/	.	.
4GG-X/	.	(4.eee-\	.	.
4B-\ 4e- 4g-X	.	.	.	.
.	.	8ddd-\	.	.
4B-\ 4e- 4g-	.	4ff-X\)	.	.
=227	=227	=227	=227	=227
!	!	!LO:TUP:a:problem:klamra łukowa i cyfra	!	!
4GG-X/	.	12ff-X\L	.	.
.	.	12gg-X\	.	.
.	.	12ff-\J	.	.
4B-\ 4d- 4g-X	.	4ee-'\	.	.
4B-\ 4d- 4g-	.	4ff-'\	.	.
=228	=228	=228	=228	=228
.	.	8qff-X/	.	.
4C-X/	.	(4.ddd-\	.	.
4G-X\ 4c-X 4e- 4g-X	.	.	.	.
.	.	8ccc-X\	.	.
4G-\ 4c- 4e- 4g-	.	4ee-\)	.	.
=229	=229	=229	=229	=229
!	!	!LO:TUP:a:problem:klamra łukowa i cyfra	!	!
4C-X/	.	12ee-\L	.	<
.	.	12ff-X\	.	.
.	.	12ee-\J	.	.
4G-X\ 4c-X 4e- 4g-X	.	4ddn'\	.	.
4G-\ 4c- 4e- 4g-	.	4ee-'\	.	[[
!!LO:LB:g=original	!	!	!	!
=230	=230	=230	=230	=230
.	.	8qee-/	.	.
4EE-/	.	(4.ccc-X\	.	.
4B-\ 4e- 4gn	.	.	.	.
.	.	8bb-\	.	.
4B-\ 4e- 4g	.	4dd-\)	.	.
=231	=231	=231	=231	=231
!	!	!LO:TUP:a:problem:klamra łukowa i cyfra	!	!
4EE-/	.	12dd-\L	.	.
.	.	12ee-\	.	.
.	.	12dd-\J	.	.
4B-\ 4e- 4g	.	4cc'\	.	.
4B-\ 4e- 4g	.	4dd-'\	.	.
=232	=232	=232	=232	=232
.	.	8qdd-/	.	.
4AA-/	.	(4.bb-\	.	.
4c\ 4e- 4a-	.	.	.	.
.	.	8aa-\	.	.
4c\ 4e- 4a-	.	4cc\)	.	.
=233	=233	=233	=233	=233
*	*	*8va	*	*
!	!	!LO:TX:a:B:t=Tempo I.o	!	!
!	!	!LO:TUP:a:problem:klamra łukowa i cyfra	!	!
4AAn/	.	12ggg-X\L	.	ff
.	.	12aaa-\	.	.
.	.	12ggg-\J	.	.
4An\ 4c 4e- 4g-X	.	4fff'\	.	.
4A\ 4c 4e- 4g-	.	4ggg-'\	.	.
=234	=234	=234	=234	=234
.	.	8qggg-X/	.	.
4BB-/	.	(4.eeee-\	.	.
4B-\ 4d- 4f	.	.	.	.
.	.	8dddd-\	.	.
8B-\ 8d- 8f	.	8fff\)	.	.
8r;	.	8r;	.	.
=235	=235	=235	=235	=235
!	!	!LO:TUP:a:problem:klamra łukowa i cyfra	!	!
4D-\	.	12fff-X\L	.	pp
.	.	12ggg-X\	.	.
.	.	12fff-\J	.	.
4A-\ 4B- 4d- 4f-X	.	4eee-'\	.	.
4A-\ 4B- 4d- 4f-	.	4fff-'\	.	.
=236	=236	=236	=236	=236
.	.	8qfff-X/	.	.
4E-\	.	(4.dddd-\	.	.
4A-\ 4c 4e-	.	.	.	.
.	.	8cccc\	.	.
4A-\ 4c 4e-	.	4eee-\)	.	.
*	*	*X8va	*	*
!!LO:LB:g=original	!	!	!	!
=237	=237	=237	=237	=237
!	!	!LO:TX:b:Bi:t=risoluto	!	!
!	!	!LO:TUP:a:problem:klamra łukowa i cyfra	!	!
4E-\	.	12ee-\L	.	.
.	.	12ff\	.	.
.	.	12ee-\J	.	.
4A-\ 4c 4e-	.	4ddn'\	.	.
4A-\ 4c 4e-	.	4ee-'\	.	.
=238	=238	=238	=238	=238
.	.	8qee-/	.	.
4EE-/	.	(4.ccc^\	.	.
4G\ 4B- 4e-	.	.	.	.
.	.	8bb-\	.	.
4G\ 4B- 4e-	.	4dd-\)	.	.
=239	=239	=239	=239	=239
.	.	8qee-/	.	.
4EE-/	.	(4.ccc^\	.	.
4G\ 4B- 4e-	.	.	.	.
.	.	8bb-\	.	.
4G\ 4B- 4e-	.	4dd-\)	.	.
=240	=240	=240	=240	=240
4E-\	.	2.cc\ 2.aa-	.	.
4A-\ 4c 4e-	.	.	.	.
4A-\ 4c 4e-	.	.	.	.
=	=	=	=	=
4AA-/	.	4cc\ 4aa-	.	.
=241||	=241||	=241||	=241||	=241||
4r	.	4cc\ 4aa- 4ccc	.	ff
!	!	!LO:TX:b:Bi:t=risoluto	!	!
4r	.	4dd-\ 4bb- 4ddd-	.	.
=242	=242	=242	=242	=242
4AA-/	.	4ee-\ 4ccc 4eee-	.	.
4E-\ 4A- 4c	.	2ff^\ 2ddd- 2fff	.	.
4E-\ 4A- 4c	.	.	.	.
=243	=243	=243	=243	=243
4AA-/	.	4ee-\ 4ccc 4eee-	.	.
4E-\ 4A- 4c	.	2aa-^\ 2ccc 2aaa-	.	.
4E-\ 4A- 4c	.	.	.	.
=244	=244	=244	=244	=244
.	.	8qbbb-/	.	.
4AA-/	.	4bb-\ 4ddd- 4aaa-	.	.
4F-X\ 4G 4d-	.	2bb-^\ 2ddd- 2ggg	.	.
4F-\ 4G 4d-	.	.	.	.
!!LO:PB:g=original	!	!	!	!
=245	=245	=245	=245	=245
4AA-/	.	4r	.	.
4F-X\ 4G 4d-	.	4b-\ 4gg 4bb-	.	.
4F-\ 4G 4d-	.	4cc\ 4aa- 4ccc	.	.
=246	=246	=246	=246	=246
4AA-/	.	4dd-\ 4gg 4bb- 4ddd-	.	.
4F-X\ 4G 4d-	.	2ee-^\ 2gg 2bb- 2eee-	.	.
4F-\ 4G 4d-	.	.	.	.
=247	=247	=247	=247	=247
4AA-/	.	4dd-\ 4gg 4bb- 4ddd-	.	.
4F-X\ 4G 4d-	.	2ff-X^\ 2gg 2ddd- 2fff-X	.	.
4F-\ 4G 4d-	.	.	.	.
=248	=248	=248	=248	=248
4AA-/	.	4ff-X\ 4aa- 4ddd- 4fff-X	.	.
4E-\ 4A- 4c	.	2ee-^\ 2aa- 2ccc 2eee-	.	.
4E-\ 4A- 4c	.	.	.	.
=249	=249	=249	=249	=249
4AA-/	.	4r	.	.
4E-\ 4A- 4c	.	4a-\ 4cc 4ee- 4aa-	.	.
4E-\ 4A- 4c	.	4b-\ 4cc 4ee- 4bb-	.	.
=250	=250	=250	=250	=250
4GG-X/	.	4cc\ 4ee- 4aa- 4ccc	.	.
4C\ 4E- 4A- 4c	.	2dd-^\ 2ee- 2aa- 2ddd-	.	.
4C\ 4E- 4A- 4c	.	.	.	.
=251	=251	=251	=251	=251
4FF/	.	4cc\ 4ee- 4aan 4ccc	.	.
4C\ 4E- 4An 4c	.	2ee-^\ 2gg-X 2ccc 2eee-	.	.
4C\ 4E- 4A 4c	.	.	.	.
=252	=252	=252	=252	=252
4BBB-/ 4BB-	.	4ee-\ 4gg-X 4ccc 4eee-	.	.
4DD-/ 4D-	.	2dd-^\ 2ff 2bb- 2ddd-	.	.
4FF/ 4F	.	.	.	.
=253	=253	=253	=253	=253
4BB-\ 4B-	.	4r	.	.
4D-\ 4F 4B-	.	4f\ 4b- 4dd- 4ff	.	.
4D-\ 4F 4B-	.	4f#X\ 4b- 4dd- 4ff#X	.	.
!!LO:LB:g=original	!	!	!	!
=254	=254	=254	=254	=254
4EE-/ 4E-	.	4g\ 4b- 4dd- 4gg	.	.
4E-\ 4G 4d-	.	2a-^\ 2aa-	.	.
4E-\ 4G 4d-	.	.	.	.
=255	=255	=255	=255	=255
4EE-/ 4E-	.	4cc\ 4ee- 4ccc	.	.
4E-\ 4G 4d-	.	2b-^\ 2bb-	.	.
4E-\ 4G 4d-	.	.	.	.
=256	=256	=256	=256	=256
4AAA-/ 4AA-	.	4a-\ 4cc 4ee- 4aa-	.	.
4E-\ 4A- 4c	.	4r	.	.
4E-\ 4A- 4c	.	4r	.	.
=257	=257	=257	=257	=257
4AA-/	.	2.r	.	.
4E-\ 4A- 4c	.	.	.	.
4E-\ 4A- 4c	.	.	.	.
=258	=258	=258	=258	=258
4AA-/	.	4r	.	.
4E-\ 4A- 4c	.	4r	.	.
*	*	*8va	*	*
4E-\ 4A- 4c	.	4eee-\	.	.
=259	=259	=259	=259	=259
!	!	!LO:TUP:a:problem:klamra łukowa i cyfra	!	!
4AA-/	.	12eee-\L	.	.
.	.	12fff\	.	.
.	.	12eee-\J	.	.
4E-\ 4A- 4c	.	4dddn'\	.	.
4E-\ 4A- 4c	.	4eee-'\	.	.
=260	=260	=260	=260	=260
.	.	8qeee-/	.	.
4AA-/	.	(4.cccc\	.	.
4F-X\ 4G 4d-	.	.	.	.
.	.	8bbb-\	.	.
4F-\ 4G 4d-	.	4ddd-\)	.	.
*	*	*X8va	*	*
=261	=261	=261	=261	=261
4AA-/	.	2.r	.	.
4F-X\ 4G 4d-	.	.	.	.
4F-\ 4G 4d-	.	.	.	.
=262	=262	=262	=262	=262
4AA-/	.	4r	.	.
4F-X\ 4G 4d-	.	4r	.	.
4F-\ 4G 4d-	.	4dd-	.	.
!!LO:LB:g=original	!	!	!	!
=263	=263	=263	=263	=263
!	!	!LO:TUP:a:problem:klamra łukowa i cyfra	!	!
4AA-/	.	12dd-\L	.	.
.	.	12ee-\	.	.
.	.	12dd-\J	.	.
4F-X\ 4G 4d-	.	4cc'\	.	.
4F-\ 4G 4d-	.	4dd-'\	.	.
=264	=264	=264	=264	=264
.	.	8qdd-/	.	.
4AA-/	.	(4.bb-\	.	.
4E-\ 4A- 4c	.	.	.	.
.	.	8aa-\	.	.
4E-\ 4A- 4c	.	4cc\)	.	.
=265	=265	=265	=265	=265
4AA-/	.	2.r	.	.
4E-\ 4A- 4c	.	.	.	.
4E-\ 4A- 4c	.	.	.	.
=266	=266	=266	=266	=266
4AA-/	.	4r	.	.
4E-\ 4A- 4c	.	4r	.	.
4E-\ 4A- 4c	.	4cc\	.	.
=267	=267	=267	=267	=267
!	!	!LO:TUP:a:problem:klamra łukowa i cyfra	!	!
4AA-/	.	12cc\L	.	.
.	.	12dd-\	.	.
.	.	12cc\J	.	.
4E-\ 4A- 4c	.	4bn'\	.	.
4E-\ 4A- 4c	.	4cc'\	.	.
=268	=268	=268	=268	=268
4AA-/	.	(2ff-X\	.	.
4D-\ 4B-	.	.	.	.
4D-\ 4B-	.	4g/)	.	.
=269	=269	=269	=269	=269
4AA-/	.	2.r	.	.
4D-\ 4B-	.	.	.	.
4D-\ 4B-	.	.	.	.
=270	=270	=270	=270	=270
4AA-/	.	(2f-X/	.	>
4D-\ 4B-	.	.	.	.
4D-\ 4B-	.	4G/)	.	.
!!LO:LB:g=original	!	!	!	!
=271	=271	=271	=271	=271
4AA-/	.	2.r	.	.
4D-\ 4B-	.	.	.	.
4D-\ 4B-	.	.	.	]]
=272	=272	=272	=272	=272
4AA-/	.	(2e-/	.	.
4C\ 4E-	.	.	.	.
4C\ 4E-	.	4A-/)	.	.
=273	=273	=273	=273	=273
4AA-/	.	2.r	.	.
4C\ 4E-	.	.	.	.
4C\ 4E-	.	.	.	.
=274	=274	=274	=274	=274
4AAA-/	.	4r	.	.
4r	.	4r	.	.
*	*	*8va	*	*
4r	.	4eee-\	.	p
=275	=275	=275	=275	=275
!	!	!LO:TUP:a:problem:klamra łukowa i cyfra	!	!
2.r	.	12eee-\L	.	.
.	.	12fff\	.	.
.	.	12eee-\J	.	.
.	.	4dddn'\	.	.
.	.	4eee-'\	.	.
=276	=276	=276	=276	=276
.	.	8qeee-/	.	.
2.r	.	(4.cccc\	.	.
.	.	8bbb-\	.	.
.	.	4ddd-\)	.	.
*	*	*X8va	*	*
=277	=277	=277	=277	=277
4r	.	4r	.	.
4r	.	4r	.	.
4EE-/ 4E-	.	4G/ 4B- 4d- 4e-	.	.
=278	=278	=278	=278	=278
4EE-/ 4E-	.	4G/ 4B- 4d- 4e-	.	.
4r	.	4r	.	.
*	*	*8va	*	*
4r	.	4ddd-\	.	.
=279	=279	=279	=279	=279
!	!	!LO:TUP:a:problem:klamra łukowa i cyfra	!	!
2.r	.	12ddd-\L	.	.
.	.	12eee-\	.	.
.	.	12ddd-\J	.	.
.	.	4ccc'\	.	.
.	.	4ddd-'\	.	.
!!LO:LB:g=original	!	!	!	!
=280	=280	=280	=280	=280
.	.	8qddd-/	.	.
2.r	.	(4.bbb-\	.	.
.	.	8aaa-\	.	.
.	.	4ccc\)	.	.
*	*	*X8va	*	*
=281	=281	=281	=281	=281
4r	.	4r	.	.
4r	.	4r	.	.
4AAA-\ 4AA-	.	4E-</ 4A- 4c 4e-	.	.
=282	=282	=282	=282	=282
4AAA-\ 4AA-	.	4E-</ 4A- 4c 4e-	.	.
4r	.	4r	.	.
4r	.	4ccc\	.	.
=283	=283	=283	=283	=283
!	!	!LO:TUP:a:problem:klamra łukowa i cyfra	!	!
2.r	.	12ccc\L	.	pp
.	.	12ddd-\	.	.
.	.	12ccc\J	.	.
.	.	4bbn'\	.	.
.	.	4ccc'\	.	.
=284	=284	=284	=284	=284
2.r	.	(2fff-X\	.	.
.	.	8gg\)	.	.
.	.	8r	.	.
=285	=285	=285	=285	=285
4EE-/ 4E-	.	4G/ 4d-	.	.
4r	.	4r	.	.
4r	.	4r	.	.
=286	=286	=286	=286	=286
!	!	!LO:TX:b:t=mo_ren_do:dur=2hqe:ext=ud:problem:text with extention lines 	!	!
2.r	.	(2eee-\	.	.
.	.	8gg\)	.	.
.	.	8r	.	.
=287	=287	=287	=287	=287
4EE-/ 4E-	.	4G/ 4d-	.	.
4r	.	4r	.	.
4r	.	4r	.	.
=288	=288	=288	=288	=288
2.r	.	(2eee-\	.	.
.	.	8aa-\)	.	.
.	.	8r	.	.
!!LO:LB:g=original	!	!	!	!
=289	=289	=289	=289	=289
4AA-/ 4E-	.	4A-/ 4c	.	.
4r	.	4r	.	.
4r	.	4r	.	.
=290	=290	=290	=290	=290
2.r	.	2aaa-\	.	ppp
.	.	4r	.	.
=291	=291	=291	=291	=291
4AAA-\ 4AA-	.	4E-</ 4c	.	.
4r	.	4r	.	.
4r	.	4r	.	.
=292	=292	=292	=292	=292
4AAA-\ 4AA-	.	4E-</ 4c	.	.
4r	.	4r	.	.
4r	.	4r	.	.
=293	=293	=293	=293	=293
!	!	!LO:TX:b:B:t=1	!	!
2.r	.	2.r	.	.
=294	=294	=294	=294	=294
!	!	!LO:TX:a:B:t=a tempo.	!	!
4AAA-/ 4CC 4EE- 4AA-	.	4a-\ 4cc 4ee- 4aa-	.	fff
4AAA-/ 4CC 4EE- 4AA-	.	4cc\ 4ccc	.	.
4AAA-/ 4CC 4EE- 4AA-	.	4ee-\ 4eee-	.	.
=295	=295	=295	=295	=295
4AAA-/ 4CC 4EE- 4AA-	.	4aa-\ 4aaa-	.	.
*	*	*8va	*	*
4AAA-/ 4CC 4EE- 4AA-	.	4ccc\ 4cccc	.	.
4AAA-/ 4CC 4EE- 4AA-	.	4eee-\ 4eeee-	.	.
=296	=296	=296	=296	=296
4AAA-/ 4CC 4EE- 4AA-	.	4aaa-\ 4aaaa-	.	.
*	*	*X8va	*	*
4r	.	4r	.	.
4r	.	4r	.	.
=297	=297	=297	=297	=297
4AA-\ 4C 4E- 4A-	.	4cc\ 4ee- 4aa- 4ccc	.	.
4r	.	4r	.	.
4r	.	4r	.	.
=298	=298	=298	=298	=298
2.AAA-/ 2.AA-	.	2.A-/	.	.
==	==	==	==	==
*-	*-	*-	*-	*-
!!!system-decoration: {(s1,s2)}
!!!RDF**kern: > = above
!!!RDF**kern: < = below
!!!ENC: Marta Opryszak
!!!END: 2022-07-28
!!!ENC: Natalia Wrzos
!!!END: 2022-09-09
!!!YEC: Copyright 2022 Narodowy Instytut Fryderyka Chopina (https://polishscores.org)
!!!YEM: License CC-BY-4.0 (https://creativecommons.org/licenses/by/4.0)
